X: 111
T: Pollonesse #111
M: 3/4
L: 1/8
R: Pollonesse
K: D
Q: 100
AA dc de|ff gf ed|ef ed cB|AA dc de|ff gf ed|ec d2D2:|
|:ff gf ed|ff gf ed|efe2F2|ff gf ed|aa ba ag|ecd2D2:|

